Ressources/ReferenceLUTs/CineonFilmLog_to_Rec709__BT1886.cube
TITLE "Generated by Resolve"
LUT_3D_SIZE 5
0 0 0
0.121736 0 0
0.45893 0 0
0.840452 0 0
1 0 0
0 0.121736 0
0.121736 0.121736 0
0.45893 0.121736 0
0.840452 0.121736 0
1 0.121736 0
0 0.45893 0
0.121736 0.45893 0
0.45893 0.45893 0
0.840452 0.45893 0
1 0.45893 0
0 0.840452 0
0.121736 0.840452 0
0.45893 0.840452 0
0.840452 0.840452 0
1 0.840452 0
0 1 0
0.121736 1 0
0.45893 1 0
0.840452 1 0
1 1 0
0 0 0.121736
0.121736 0 0.121736
0.45893 0 0.121736
0.840452 0 0.121736
1 0 0.121736
0 0.121736 0.121736
0.121736 0.121736 0.121736
0.45893 0.121736 0.121736
0.840452 0.121736 0.121736
1 0.121736 0.121736
0 0.45893 0.121736
0.121736 0.45893 0.121736
0.45893 0.45893 0.121736
0.840452 0.45893 0.121736
1 0.45893 0.121736
0 0.840452 0.121736
0.121736 0.840452 0.121736
0.45893 0.840452 0.121736
0.840452 0.840452 0.121736
1 0.840452 0.121736
0 1 0.121736
0.121736 1 0.121736
0.45893 1 0.121736
0.840452 1 0.121736
1 1 0.121736
0 0 0.45893
0.121736 0 0.45893
0.45893 0 0.45893
0.840452 0 0.45893
1 0 0.45893
0 0.121736 0.45893
0.121736 0.121736 0.45893
0.45893 0.121736 0.45893
0.840452 0.121736 0.45893
1 0.121736 0.45893
0 0.45893 0.45893
0.121736 0.45893 0.45893
0.45893 0.45893 0.45893
0.840452 0.45893 0.45893
1 0.45893 0.45893
0 0.840452 0.45893
0.121736 0.840452 0.45893
0.45893 0.840452 0.45893
0.840452 0.840452 0.45893
1 0.840452 0.45893
0 1 0.45893
0.121736 1 0.45893
0.45893 1 0.45893
0.840452 1 0.45893
1 1 0.45893
0 0 0.840452
0.121736 0 0.840452
0.45893 0 0.840452
0.840452 0 0.840452
1 0 0.840452
0 0.121736 0.840452
0.121736 0.121736 0.840452
0.45893 0.121736 0.840452
0.840452 0.121736 0.840452
1 0.121736 0.840452
0 0.45893 0.840452
0.121736 0.45893 0.840452
0.45893 0.45893 0.840452
0.840452 0.45893 0.840452
1 0.45893 0.840452
0 0.840452 0.840452
0.121736 0.840452 0.840452
0.45893 0.840452 0.840452
0.840452 0.840452 0.840452
1 0.840452 0.840452
0 1 0.840452
0.121736 1 0.840452
0.45893 1 0.840452
0.840452 1 0.840452
1 1 0.840452
0 0 1
0.121736 0 1
0.45893 0 1
0.840452 0 1
1 0 1
0 0.121736 1
0.121736 0.121736 1
0.45893 0.121736 1
0.840452 0.121736 1
1 0.121736 1
0 0.45893 1
0.121736 0.45893 1
0.45893 0.45893 1
0.840452 0.45893 1
1 0.45893 1
0 0.840452 1
0.121736 0.840452 1
0.45893 0.840452 1
0.840452 0.840452 1
1 0.840452 1
0 1 1
0.121736 1 1
0.45893 1 1
0.840452 1 1
1 1 1
