Ressources/ReferenceLUTs/CineonFilmLog_to_Rec709__BT1886.cube
TITLE "Generated by Resolve"
LUT_3D_SIZE 9
0 0 0
0.0153353 0 0
0.121736 0 0
0.271351 0 0
0.45893 0 0
0.665736 0 0
0.840452 0 0
0.948196 0 0
1 0 0
0 0.0153353 0
0.0153353 0.0153353 0
0.121736 0.0153353 0
0.271351 0.0153353 0
0.45893 0.0153353 0
0.665736 0.0153353 0
0.840452 0.0153353 0
0.948196 0.0153353 0
1 0.0153353 0
0 0.121736 0
0.0153353 0.121736 0
0.121736 0.121736 0
0.271351 0.121736 0
0.45893 0.121736 0
0.665736 0.121736 0
0.840452 0.121736 0
0.948196 0.121736 0
1 0.121736 0
0 0.271351 0
0.0153353 0.271351 0
0.121736 0.271351 0
0.271351 0.271351 0
0.45893 0.271351 0
0.665736 0.271351 0
0.840452 0.271351 0
0.948196 0.271351 0
1 0.271351 0
0 0.45893 0
0.0153353 0.45893 0
0.121736 0.45893 0
0.271351 0.45893 0
0.45893 0.45893 0
0.665736 0.45893 0
0.840452 0.45893 0
0.948196 0.45893 0
1 0.45893 0
0 0.665736 0
0.0153353 0.665736 0
0.121736 0.665736 0
0.271351 0.665736 0
0.45893 0.665736 0
0.665736 0.665736 0
0.840452 0.665736 0
0.948196 0.665736 0
1 0.665736 0
0 0.840452 0
0.0153353 0.840452 0
0.121736 0.840452 0
0.271351 0.840452 0
0.45893 0.840452 0
0.665736 0.840452 0
0.840452 0.840452 0
0.948196 0.840452 0
1 0.840452 0
0 0.948196 0
0.0153353 0.948196 0
0.121736 0.948196 0
0.271351 0.948196 0
0.45893 0.948196 0
0.665736 0.948196 0
0.840452 0.948196 0
0.948196 0.948196 0
1 0.948196 0
0 1 0
0.0153353 1 0
0.121736 1 0
0.271351 1 0
0.45893 1 0
0.665736 1 0
0.840452 1 0
0.948196 1 0
1 1 0
0 0 0.0153353
0.0153353 0 0.0153353
0.121736 0 0.0153353
0.271351 0 0.0153353
0.45893 0 0.0153353
0.665736 0 0.0153353
0.840452 0 0.0153353
0.948196 0 0.0153353
1 0 0.0153353
0 0.0153353 0.0153353
0.0153353 0.0153353 0.0153353
0.121736 0.0153353 0.0153353
0.271351 0.0153353 0.0153353
0.45893 0.0153353 0.0153353
0.665736 0.0153353 0.0153353
0.840452 0.0153353 0.0153353
0.948196 0.0153353 0.0153353
1 0.0153353 0.0153353
0 0.121736 0.0153353
0.0153353 0.121736 0.0153353
0.121736 0.121736 0.0153353
0.271351 0.121736 0.0153353
0.45893 0.121736 0.0153353
0.665736 0.121736 0.0153353
0.840452 0.121736 0.0153353
0.948196 0.121736 0.0153353
1 0.121736 0.0153353
0 0.271351 0.0153353
0.0153353 0.271351 0.0153353
0.121736 0.271351 0.0153353
0.271351 0.271351 0.0153353
0.45893 0.271351 0.0153353
0.665736 0.271351 0.0153353
0.840452 0.271351 0.0153353
0.948196 0.271351 0.0153353
1 0.271351 0.0153353
0 0.45893 0.0153353
0.0153353 0.45893 0.0153353
0.121736 0.45893 0.0153353
0.271351 0.45893 0.0153353
0.45893 0.45893 0.0153353
0.665736 0.45893 0.0153353
0.840452 0.45893 0.0153353
0.948196 0.45893 0.0153353
1 0.45893 0.0153353
0 0.665736 0.0153353
0.0153353 0.665736 0.0153353
0.121736 0.665736 0.0153353
0.271351 0.665736 0.0153353
0.45893 0.665736 0.0153353
0.665736 0.665736 0.0153353
0.840452 0.665736 0.0153353
0.948196 0.665736 0.0153353
1 0.665736 0.0153353
0 0.840452 0.0153353
0.0153353 0.840452 0.0153353
0.121736 0.840452 0.0153353
0.271351 0.840452 0.0153353
0.45893 0.840452 0.0153353
0.665736 0.840452 0.0153353
0.840452 0.840452 0.0153353
0.948196 0.840452 0.0153353
1 0.840452 0.0153353
0 0.948196 0.0153353
0.0153353 0.948196 0.0153353
0.121736 0.948196 0.0153353
0.271351 0.948196 0.0153353
0.45893 0.948196 0.0153353
0.665736 0.948196 0.0153353
0.840452 0.948196 0.0153353
0.948196 0.948196 0.0153353
1 0.948196 0.0153353
0 1 0.0153353
0.0153353 1 0.0153353
0.121736 1 0.0153353
0.271351 1 0.0153353
0.45893 1 0.0153353
0.665736 1 0.0153353
0.840452 1 0.0153353
0.948196 1 0.0153353
1 1 0.0153353
0 0 0.121736
0.0153353 0 0.121736
0.121736 0 0.121736
0.271351 0 0.121736
0.45893 0 0.121736
0.665736 0 0.121736
0.840452 0 0.121736
0.948196 0 0.121736
1 0 0.121736
0 0.0153353 0.121736
0.0153353 0.0153353 0.121736
0.121736 0.0153353 0.121736
0.271351 0.0153353 0.121736
0.45893 0.0153353 0.121736
0.665736 0.0153353 0.121736
0.840452 0.0153353 0.121736
0.948196 0.0153353 0.121736
1 0.0153353 0.121736
0 0.121736 0.121736
0.0153353 0.121736 0.121736
0.121736 0.121736 0.121736
0.271351 0.121736 0.121736
0.45893 0.121736 0.121736
0.665736 0.121736 0.121736
0.840452 0.121736 0.121736
0.948196 0.121736 0.121736
1 0.121736 0.121736
0 0.271351 0.121736
0.0153353 0.271351 0.121736
0.121736 0.271351 0.121736
0.271351 0.271351 0.121736
0.45893 0.271351 0.121736
0.665736 0.271351 0.121736
0.840452 0.271351 0.121736
0.948196 0.271351 0.121736
1 0.271351 0.121736
0 0.45893 0.121736
0.0153353 0.45893 0.121736
0.121736 0.45893 0.121736
0.271351 0.45893 0.121736
0.45893 0.45893 0.121736
0.665736 0.45893 0.121736
0.840452 0.45893 0.121736
0.948196 0.45893 0.121736
1 0.45893 0.121736
0 0.665736 0.121736
0.0153353 0.665736 0.121736
0.121736 0.665736 0.121736
0.271351 0.665736 0.121736
0.45893 0.665736 0.121736
0.665736 0.665736 0.121736
0.840452 0.665736 0.121736
0.948196 0.665736 0.121736
1 0.665736 0.121736
0 0.840452 0.121736
0.0153353 0.840452 0.121736
0.121736 0.840452 0.121736
0.271351 0.840452 0.121736
0.45893 0.840452 0.121736
0.665736 0.840452 0.121736
0.840452 0.840452 0.121736
0.948196 0.840452 0.121736
1 0.840452 0.121736
0 0.948196 0.121736
0.0153353 0.948196 0.121736
0.121736 0.948196 0.121736
0.271351 0.948196 0.121736
0.45893 0.948196 0.121736
0.665736 0.948196 0.121736
0.840452 0.948196 0.121736
0.948196 0.948196 0.121736
1 0.948196 0.121736
0 1 0.121736
0.0153353 1 0.121736
0.121736 1 0.121736
0.271351 1 0.121736
0.45893 1 0.121736
0.665736 1 0.121736
0.840452 1 0.121736
0.948196 1 0.121736
1 1 0.121736
0 0 0.271351
0.0153353 0 0.271351
0.121736 0 0.271351
0.271351 0 0.271351
0.45893 0 0.271351
0.665736 0 0.271351
0.840452 0 0.271351
0.948196 0 0.271351
1 0 0.271351
0 0.0153353 0.271351
0.0153353 0.0153353 0.271351
0.121736 0.0153353 0.271351
0.271351 0.0153353 0.271351
0.45893 0.0153353 0.271351
0.665736 0.0153353 0.271351
0.840452 0.0153353 0.271351
0.948196 0.0153353 0.271351
1 0.0153353 0.271351
0 0.121736 0.271351
0.0153353 0.121736 0.271351
0.121736 0.121736 0.271351
0.271351 0.121736 0.271351
0.45893 0.121736 0.271351
0.665736 0.121736 0.271351
0.840452 0.121736 0.271351
0.948196 0.121736 0.271351
1 0.121736 0.271351
0 0.271351 0.271351
0.0153353 0.271351 0.271351
0.121736 0.271351 0.271351
0.271351 0.271351 0.271351
0.45893 0.271351 0.271351
0.665736 0.271351 0.271351
0.840452 0.271351 0.271351
0.948196 0.271351 0.271351
1 0.271351 0.271351
0 0.45893 0.271351
0.0153353 0.45893 0.271351
0.121736 0.45893 0.271351
0.271351 0.45893 0.271351
0.45893 0.45893 0.271351
0.665736 0.45893 0.271351
0.840452 0.45893 0.271351
0.948196 0.45893 0.271351
1 0.45893 0.271351
0 0.665736 0.271351
0.0153353 0.665736 0.271351
0.121736 0.665736 0.271351
0.271351 0.665736 0.271351
0.45893 0.665736 0.271351
0.665736 0.665736 0.271351
0.840452 0.665736 0.271351
0.948196 0.665736 0.271351
1 0.665736 0.271351
0 0.840452 0.271351
0.0153353 0.840452 0.271351
0.121736 0.840452 0.271351
0.271351 0.840452 0.271351
0.45893 0.840452 0.271351
0.665736 0.840452 0.271351
0.840452 0.840452 0.271351
0.948196 0.840452 0.271351
1 0.840452 0.271351
0 0.948196 0.271351
0.0153353 0.948196 0.271351
0.121736 0.948196 0.271351
0.271351 0.948196 0.271351
0.45893 0.948196 0.271351
0.665736 0.948196 0.271351
0.840452 0.948196 0.271351
0.948196 0.948196 0.271351
1 0.948196 0.271351
0 1 0.271351
0.0153353 1 0.271351
0.121736 1 0.271351
0.271351 1 0.271351
0.45893 1 0.271351
0.665736 1 0.271351
0.840452 1 0.271351
0.948196 1 0.271351
1 1 0.271351
0 0 0.45893
0.0153353 0 0.45893
0.121736 0 0.45893
0.271351 0 0.45893
0.45893 0 0.45893
0.665736 0 0.45893
0.840452 0 0.45893
0.948196 0 0.45893
1 0 0.45893
0 0.0153353 0.45893
0.0153353 0.0153353 0.45893
0.121736 0.0153353 0.45893
0.271351 0.0153353 0.45893
0.45893 0.0153353 0.45893
0.665736 0.0153353 0.45893
0.840452 0.0153353 0.45893
0.948196 0.0153353 0.45893
1 0.0153353 0.45893
0 0.121736 0.45893
0.0153353 0.121736 0.45893
0.121736 0.121736 0.45893
0.271351 0.121736 0.45893
0.45893 0.121736 0.45893
0.665736 0.121736 0.45893
0.840452 0.121736 0.45893
0.948196 0.121736 0.45893
1 0.121736 0.45893
0 0.271351 0.45893
0.0153353 0.271351 0.45893
0.121736 0.271351 0.45893
0.271351 0.271351 0.45893
0.45893 0.271351 0.45893
0.665736 0.271351 0.45893
0.840452 0.271351 0.45893
0.948196 0.271351 0.45893
1 0.271351 0.45893
0 0.45893 0.45893
0.0153353 0.45893 0.45893
0.121736 0.45893 0.45893
0.271351 0.45893 0.45893
0.45893 0.45893 0.45893
0.665736 0.45893 0.45893
0.840452 0.45893 0.45893
0.948196 0.45893 0.45893
1 0.45893 0.45893
0 0.665736 0.45893
0.0153353 0.665736 0.45893
0.121736 0.665736 0.45893
0.271351 0.665736 0.45893
0.45893 0.665736 0.45893
0.665736 0.665736 0.45893
0.840452 0.665736 0.45893
0.948196 0.665736 0.45893
1 0.665736 0.45893
0 0.840452 0.45893
0.0153353 0.840452 0.45893
0.121736 0.840452 0.45893
0.271351 0.840452 0.45893
0.45893 0.840452 0.45893
0.665736 0.840452 0.45893
0.840452 0.840452 0.45893
0.948196 0.840452 0.45893
1 0.840452 0.45893
0 0.948196 0.45893
0.0153353 0.948196 0.45893
0.121736 0.948196 0.45893
0.271351 0.948196 0.45893
0.45893 0.948196 0.45893
0.665736 0.948196 0.45893
0.840452 0.948196 0.45893
0.948196 0.948196 0.45893
1 0.948196 0.45893
0 1 0.45893
0.0153353 1 0.45893
0.121736 1 0.45893
0.271351 1 0.45893
0.45893 1 0.45893
0.665736 1 0.45893
0.840452 1 0.45893
0.948196 1 0.45893
1 1 0.45893
0 0 0.665736
0.0153353 0 0.665736
0.121736 0 0.665736
0.271351 0 0.665736
0.45893 0 0.665736
0.665736 0 0.665736
0.840452 0 0.665736
0.948196 0 0.665736
1 0 0.665736
0 0.0153353 0.665736
0.0153353 0.0153353 0.665736
0.121736 0.0153353 0.665736
0.271351 0.0153353 0.665736
0.45893 0.0153353 0.665736
0.665736 0.0153353 0.665736
0.840452 0.0153353 0.665736
0.948196 0.0153353 0.665736
1 0.0153353 0.665736
0 0.121736 0.665736
0.0153353 0.121736 0.665736
0.121736 0.121736 0.665736
0.271351 0.121736 0.665736
0.45893 0.121736 0.665736
0.665736 0.121736 0.665736
0.840452 0.121736 0.665736
0.948196 0.121736 0.665736
1 0.121736 0.665736
0 0.271351 0.665736
0.0153353 0.271351 0.665736
0.121736 0.271351 0.665736
0.271351 0.271351 0.665736
0.45893 0.271351 0.665736
0.665736 0.271351 0.665736
0.840452 0.271351 0.665736
0.948196 0.271351 0.665736
1 0.271351 0.665736
0 0.45893 0.665736
0.0153353 0.45893 0.665736
0.121736 0.45893 0.665736
0.271351 0.45893 0.665736
0.45893 0.45893 0.665736
0.665736 0.45893 0.665736
0.840452 0.45893 0.665736
0.948196 0.45893 0.665736
1 0.45893 0.665736
0 0.665736 0.665736
0.0153353 0.665736 0.665736
0.121736 0.665736 0.665736
0.271351 0.665736 0.665736
0.45893 0.665736 0.665736
0.665736 0.665736 0.665736
0.840452 0.665736 0.665736
0.948196 0.665736 0.665736
1 0.665736 0.665736
0 0.840452 0.665736
0.0153353 0.840452 0.665736
0.121736 0.840452 0.665736
0.271351 0.840452 0.665736
0.45893 0.840452 0.665736
0.665736 0.840452 0.665736
0.840452 0.840452 0.665736
0.948196 0.840452 0.665736
1 0.840452 0.665736
0 0.948196 0.665736
0.0153353 0.948196 0.665736
0.121736 0.948196 0.665736
0.271351 0.948196 0.665736
0.45893 0.948196 0.665736
0.665736 0.948196 0.665736
0.840452 0.948196 0.665736
0.948196 0.948196 0.665736
1 0.948196 0.665736
0 1 0.665736
0.0153353 1 0.665736
0.121736 1 0.665736
0.271351 1 0.665736
0.45893 1 0.665736
0.665736 1 0.665736
0.840452 1 0.665736
0.948196 1 0.665736
1 1 0.665736
0 0 0.840452
0.0153353 0 0.840452
0.121736 0 0.840452
0.271351 0 0.840452
0.45893 0 0.840452
0.665736 0 0.840452
0.840452 0 0.840452
0.948196 0 0.840452
1 0 0.840452
0 0.0153353 0.840452
0.0153353 0.0153353 0.840452
0.121736 0.0153353 0.840452
0.271351 0.0153353 0.840452
0.45893 0.0153353 0.840452
0.665736 0.0153353 0.840452
0.840452 0.0153353 0.840452
0.948196 0.0153353 0.840452
1 0.0153353 0.840452
0 0.121736 0.840452
0.0153353 0.121736 0.840452
0.121736 0.121736 0.840452
0.271351 0.121736 0.840452
0.45893 0.121736 0.840452
0.665736 0.121736 0.840452
0.840452 0.121736 0.840452
0.948196 0.121736 0.840452
1 0.121736 0.840452
0 0.271351 0.840452
0.0153353 0.271351 0.840452
0.121736 0.271351 0.840452
0.271351 0.271351 0.840452
0.45893 0.271351 0.840452
0.665736 0.271351 0.840452
0.840452 0.271351 0.840452
0.948196 0.271351 0.840452
1 0.271351 0.840452
0 0.45893 0.840452
0.0153353 0.45893 0.840452
0.121736 0.45893 0.840452
0.271351 0.45893 0.840452
0.45893 0.45893 0.840452
0.665736 0.45893 0.840452
0.840452 0.45893 0.840452
0.948196 0.45893 0.840452
1 0.45893 0.840452
0 0.665736 0.840452
0.0153353 0.665736 0.840452
0.121736 0.665736 0.840452
0.271351 0.665736 0.840452
0.45893 0.665736 0.840452
0.665736 0.665736 0.840452
0.840452 0.665736 0.840452
0.948196 0.665736 0.840452
1 0.665736 0.840452
0 0.840452 0.840452
0.0153353 0.840452 0.840452
0.121736 0.840452 0.840452
0.271351 0.840452 0.840452
0.45893 0.840452 0.840452
0.665736 0.840452 0.840452
0.840452 0.840452 0.840452
0.948196 0.840452 0.840452
1 0.840452 0.840452
0 0.948196 0.840452
0.0153353 0.948196 0.840452
0.121736 0.948196 0.840452
0.271351 0.948196 0.840452
0.45893 0.948196 0.840452
0.665736 0.948196 0.840452
0.840452 0.948196 0.840452
0.948196 0.948196 0.840452
1 0.948196 0.840452
0 1 0.840452
0.0153353 1 0.840452
0.121736 1 0.840452
0.271351 1 0.840452
0.45893 1 0.840452
0.665736 1 0.840452
0.840452 1 0.840452
0.948196 1 0.840452
1 1 0.840452
0 0 0.948196
0.0153353 0 0.948196
0.121736 0 0.948196
0.271351 0 0.948196
0.45893 0 0.948196
0.665736 0 0.948196
0.840452 0 0.948196
0.948196 0 0.948196
1 0 0.948196
0 0.0153353 0.948196
0.0153353 0.0153353 0.948196
0.121736 0.0153353 0.948196
0.271351 0.0153353 0.948196
0.45893 0.0153353 0.948196
0.665736 0.0153353 0.948196
0.840452 0.0153353 0.948196
0.948196 0.0153353 0.948196
1 0.0153353 0.948196
0 0.121736 0.948196
0.0153353 0.121736 0.948196
0.121736 0.121736 0.948196
0.271351 0.121736 0.948196
0.45893 0.121736 0.948196
0.665736 0.121736 0.948196
0.840452 0.121736 0.948196
0.948196 0.121736 0.948196
1 0.121736 0.948196
0 0.271351 0.948196
0.0153353 0.271351 0.948196
0.121736 0.271351 0.948196
0.271351 0.271351 0.948196
0.45893 0.271351 0.948196
0.665736 0.271351 0.948196
0.840452 0.271351 0.948196
0.948196 0.271351 0.948196
1 0.271351 0.948196
0 0.45893 0.948196
0.0153353 0.45893 0.948196
0.121736 0.45893 0.948196
0.271351 0.45893 0.948196
0.45893 0.45893 0.948196
0.665736 0.45893 0.948196
0.840452 0.45893 0.948196
0.948196 0.45893 0.948196
1 0.45893 0.948196
0 0.665736 0.948196
0.0153353 0.665736 0.948196
0.121736 0.665736 0.948196
0.271351 0.665736 0.948196
0.45893 0.665736 0.948196
0.665736 0.665736 0.948196
0.840452 0.665736 0.948196
0.948196 0.665736 0.948196
1 0.665736 0.948196
0 0.840452 0.948196
0.0153353 0.840452 0.948196
0.121736 0.840452 0.948196
0.271351 0.840452 0.948196
0.45893 0.840452 0.948196
0.665736 0.840452 0.948196
0.840452 0.840452 0.948196
0.948196 0.840452 0.948196
1 0.840452 0.948196
0 0.948196 0.948196
0.0153353 0.948196 0.948196
0.121736 0.948196 0.948196
0.271351 0.948196 0.948196
0.45893 0.948196 0.948196
0.665736 0.948196 0.948196
0.840452 0.948196 0.948196
0.948196 0.948196 0.948196
1 0.948196 0.948196
0 1 0.948196
0.0153353 1 0.948196
0.121736 1 0.948196
0.271351 1 0.948196
0.45893 1 0.948196
0.665736 1 0.948196
0.840452 1 0.948196
0.948196 1 0.948196
1 1 0.948196
0 0 1
0.0153353 0 1
0.121736 0 1
0.271351 0 1
0.45893 0 1
0.665736 0 1
0.840452 0 1
0.948196 0 1
1 0 1
0 0.0153353 1
0.0153353 0.0153353 1
0.121736 0.0153353 1
0.271351 0.0153353 1
0.45893 0.0153353 1
0.665736 0.0153353 1
0.840452 0.0153353 1
0.948196 0.0153353 1
1 0.0153353 1
0 0.121736 1
0.0153353 0.121736 1
0.121736 0.121736 1
0.271351 0.121736 1
0.45893 0.121736 1
0.665736 0.121736 1
0.840452 0.121736 1
0.948196 0.121736 1
1 0.121736 1
0 0.271351 1
0.0153353 0.271351 1
0.121736 0.271351 1
0.271351 0.271351 1
0.45893 0.271351 1
0.665736 0.271351 1
0.840452 0.271351 1
0.948196 0.271351 1
1 0.271351 1
0 0.45893 1
0.0153353 0.45893 1
0.121736 0.45893 1
0.271351 0.45893 1
0.45893 0.45893 1
0.665736 0.45893 1
0.840452 0.45893 1
0.948196 0.45893 1
1 0.45893 1
0 0.665736 1
0.0153353 0.665736 1
0.121736 0.665736 1
0.271351 0.665736 1
0.45893 0.665736 1
0.665736 0.665736 1
0.840452 0.665736 1
0.948196 0.665736 1
1 0.665736 1
0 0.840452 1
0.0153353 0.840452 1
0.121736 0.840452 1
0.271351 0.840452 1
0.45893 0.840452 1
0.665736 0.840452 1
0.840452 0.840452 1
0.948196 0.840452 1
1 0.840452 1
0 0.948196 1
0.0153353 0.948196 1
0.121736 0.948196 1
0.271351 0.948196 1
0.45893 0.948196 1
0.665736 0.948196 1
0.840452 0.948196 1
0.948196 0.948196 1
1 0.948196 1
0 1 1
0.0153353 1 1
0.121736 1 1
0.271351 1 1
0.45893 1 1
0.665736 1 1
0.840452 1 1
0.948196 1 1
1 1 1
