Ressources/ReferenceLUTs/CineonFilmLog_to_Rec709__BT1886.cube
TITLE "Generated by Resolve"
LUT_3D_SIZE 33
0 0 0
0 0 0
0 0 0
0.000366217 0 0
0.0153353 0 0
0.0343328 0 0
0.058381 0 0
0.088838 0 0
0.121736 0 0
0.156008 0 0
0.192157 0 0
0.230533 0 0
0.271351 0 0
0.314717 0 0
0.360586 0 0
0.408789 0 0
0.45893 0 0
0.510491 0 0
0.562737 0 0
0.614801 0 0
0.665736 0 0
0.71458 0 0
0.760418 0 0
0.802533 0 0
0.840452 0 0
0.873884 0 0
0.902846 0 0
0.927504 0 0
0.948196 0 0
0.965331 0 0
0.979385 0 0
0.990799 0 0
1 0 0
0 0 0
0 0 0
0 0 0
0.000366217 0 0
0.0153353 0 0
0.0343328 0 0
0.058381 0 0
0.088838 0 0
0.121736 0 0
0.156008 0 0
0.192157 0 0
0.230533 0 0
0.271351 0 0
0.314717 0 0
0.360586 0 0
0.408789 0 0
0.45893 0 0
0.510491 0 0
0.562737 0 0
0.614801 0 0
0.665736 0 0
0.71458 0 0
0.760418 0 0
0.802533 0 0
0.840452 0 0
0.873884 0 0
0.902846 0 0
0.927504 0 0
0.948196 0 0
0.965331 0 0
0.979385 0 0
0.990799 0 0
1 0 0
0 0 0
0 0 0
0 0 0
0.000366217 0 0
0.0153353 0 0
0.0343328 0 0
0.058381 0 0
0.088838 0 0
0.121736 0 0
0.156008 0 0
0.192157 0 0
0.230533 0 0
0.271351 0 0
0.314717 0 0
0.360586 0 0
0.408789 0 0
0.45893 0 0
0.510491 0 0
0.562737 0 0
0.614801 0 0
0.665736 0 0
0.71458 0 0
0.760418 0 0
0.802533 0 0
0.840452 0 0
0.873884 0 0
0.902846 0 0
0.927504 0 0
0.948196 0 0
0.965331 0 0
0.979385 0 0
0.990799 0 0
1 0 0
0 0.000366217 0
0 0.000366217 0
0 0.000366217 0
0.000366217 0.000366217 0
0.0153353 0.000366217 0
0.0343328 0.000366217 0
0.058381 0.000366217 0
0.088838 0.000366217 0
0.121736 0.000366217 0
0.156008 0.000366217 0
0.192157 0.000366217 0
0.230533 0.000366217 0
0.271351 0.000366217 0
0.314717 0.000366217 0
0.360586 0.000366217 0
0.408789 0.000366217 0
0.45893 0.000366217 0
0.510491 0.000366217 0
0.562737 0.000366217 0
0.614801 0.000366217 0
0.665736 0.000366217 0
0.71458 0.000366217 0
0.760418 0.000366217 0
0.802533 0.000366217 0
0.840452 0.000366217 0
0.873884 0.000366217 0
0.902846 0.000366217 0
0.927504 0.000366217 0
0.948196 0.000366217 0
0.965331 0.000366217 0
0.979385 0.000366217 0
0.990799 0.000366217 0
1 0.000366217 0
0 0.0153353 0
0 0.0153353 0
0 0.0153353 0
0.000366217 0.0153353 0
0.0153353 0.0153353 0
0.0343328 0.0153353 0
0.058381 0.0153353 0
0.088838 0.0153353 0
0.121736 0.0153353 0
0.156008 0.0153353 0
0.192157 0.0153353 0
0.230533 0.0153353 0
0.271351 0.0153353 0
0.314717 0.0153353 0
0.360586 0.0153353 0
0.408789 0.0153353 0
0.45893 0.0153353 0
0.510491 0.0153353 0
0.562737 0.0153353 0
0.614801 0.0153353 0
0.665736 0.0153353 0
0.71458 0.0153353 0
0.760418 0.0153353 0
0.802533 0.0153353 0
0.840452 0.0153353 0
0.873884 0.0153353 0
0.902846 0.0153353 0
0.927504 0.0153353 0
0.948196 0.0153353 0
0.965331 0.0153353 0
0.979385 0.0153353 0
0.990799 0.0153353 0
1 0.0153353 0
0 0.0343328 0
0 0.0343328 0
0 0.0343328 0
0.000366217 0.0343328 0
0.0153353 0.0343328 0
0.0343328 0.0343328 0
0.058381 0.0343328 0
0.088838 0.0343328 0
0.121736 0.0343328 0
0.156008 0.0343328 0
0.192157 0.0343328 0
0.230533 0.0343328 0
0.271351 0.0343328 0
0.314717 0.0343328 0
0.360586 0.0343328 0
0.408789 0.0343328 0
0.45893 0.0343328 0
0.510491 0.0343328 0
0.562737 0.0343328 0
0.614801 0.0343328 0
0.665736 0.0343328 0
0.71458 0.0343328 0
0.760418 0.0343328 0
0.802533 0.0343328 0
0.840452 0.0343328 0
0.873884 0.0343328 0
0.902846 0.0343328 0
0.927504 0.0343328 0
0.948196 0.0343328 0
0.965331 0.0343328 0
0.979385 0.0343328 0
0.990799 0.0343328 0
1 0.0343328 0
0 0.058381 0
0 0.058381 0
0 0.058381 0
0.000366217 0.058381 0
0.0153353 0.058381 0
0.0343328 0.058381 0
0.058381 0.058381 0
0.088838 0.058381 0
0.121736 0.058381 0
0.156008 0.058381 0
0.192157 0.058381 0
0.230533 0.058381 0
0.271351 0.058381 0
0.314717 0.058381 0
0.360586 0.058381 0
0.408789 0.058381 0
0.45893 0.058381 0
0.510491 0.058381 0
0.562737 0.058381 0
0.614801 0.058381 0
0.665736 0.058381 0
0.71458 0.058381 0
0.760418 0.058381 0
0.802533 0.058381 0
0.840452 0.058381 0
0.873884 0.058381 0
0.902846 0.058381 0
0.927504 0.058381 0
0.948196 0.058381 0
0.965331 0.058381 0
0.979385 0.058381 0
0.990799 0.058381 0
1 0.058381 0
0 0.088838 0
0 0.088838 0
0 0.088838 0
0.000366217 0.088838 0
0.0153353 0.088838 0
0.0343328 0.088838 0
0.058381 0.088838 0
0.088838 0.088838 0
0.121736 0.088838 0
0.156008 0.088838 0
0.192157 0.088838 0
0.230533 0.088838 0
0.271351 0.088838 0
0.314717 0.088838 0
0.360586 0.088838 0
0.408789 0.088838 0
0.45893 0.088838 0
0.510491 0.088838 0
0.562737 0.088838 0
0.614801 0.088838 0
0.665736 0.088838 0
0.71458 0.088838 0
0.760418 0.088838 0
0.802533 0.088838 0
0.840452 0.088838 0
0.873884 0.088838 0
0.902846 0.088838 0
0.927504 0.088838 0
0.948196 0.088838 0
0.965331 0.088838 0
0.979385 0.088838 0
0.990799 0.088838 0
1 0.088838 0
0 0.121736 0
0 0.121736 0
0 0.121736 0
0.000366217 0.121736 0
0.0153353 0.121736 0
0.0343328 0.121736 0
0.058381 0.121736 0
0.088838 0.121736 0
0.121736 0.121736 0
0.156008 0.121736 0
0.192157 0.121736 0
0.230533 0.121736 0
0.271351 0.121736 0
0.314717 0.121736 0
0.360586 0.121736 0
0.408789 0.121736 0
0.45893 0.121736 0
0.510491 0.121736 0
0.562737 0.121736 0
0.614801 0.121736 0
0.665736 0.121736 0
0.71458 0.121736 0
0.760418 0.121736 0
0.802533 0.121736 0
0.840452 0.121736 0
0.873884 0.121736 0
0.902846 0.121736 0
0.927504 0.121736 0
0.948196 0.121736 0
0.965331 0.121736 0
0.979385 0.121736 0
0.990799 0.121736 0
1 0.121736 0
0 0.156008 0
0 0.156008 0
0 0.156008 0
0.000366217 0.156008 0
0.0153353 0.156008 0
0.0343328 0.156008 0
0.058381 0.156008 0
0.088838 0.156008 0
0.121736 0.156008 0
0.156008 0.156008 0
0.192157 0.156008 0
0.230533 0.156008 0
0.271351 0.156008 0
0.314717 0.156008 0
0.360586 0.156008 0
0.408789 0.156008 0
0.45893 0.156008 0
0.510491 0.156008 0
0.562737 0.156008 0
0.614801 0.156008 0
0.665736 0.156008 0
0.71458 0.156008 0
0.760418 0.156008 0
0.802533 0.156008 0
0.840452 0.156008 0
0.873884 0.156008 0
0.902846 0.156008 0
0.927504 0.156008 0
0.948196 0.156008 0
0.965331 0.156008 0
0.979385 0.156008 0
0.990799 0.156008 0
1 0.156008 0
0 0.192157 0
0 0.192157 0
0 0.192157 0
0.000366217 0.192157 0
0.0153353 0.192157 0
0.0343328 0.192157 0
0.058381 0.192157 0
0.088838 0.192157 0
0.121736 0.192157 0
0.156008 0.192157 0
0.192157 0.192157 0
0.230533 0.192157 0
0.271351 0.192157 0
0.314717 0.192157 0
0.360586 0.192157 0
0.408789 0.192157 0
0.45893 0.192157 0
0.510491 0.192157 0
0.562737 0.192157 0
0.614801 0.192157 0
0.665736 0.192157 0
0.71458 0.192157 0
0.760418 0.192157 0
0.802533 0.192157 0
0.840452 0.192157 0
0.873884 0.192157 0
0.902846 0.192157 0
0.927504 0.192157 0
0.948196 0.192157 0
0.965331 0.192157 0
0.979385 0.192157 0
0.990799 0.192157 0
1 0.192157 0
0 0.230533 0
0 0.230533 0
0 0.230533 0
0.000366217 0.230533 0
0.0153353 0.230533 0
0.0343328 0.230533 0
0.058381 0.230533 0
0.088838 0.230533 0
0.121736 0.230533 0
0.156008 0.230533 0
0.192157 0.230533 0
0.230533 0.230533 0
0.271351 0.230533 0
0.314717 0.230533 0
0.360586 0.230533 0
0.408789 0.230533 0
0.45893 0.230533 0
0.510491 0.230533 0
0.562737 0.230533 0
0.614801 0.230533 0
0.665736 0.230533 0
0.71458 0.230533 0
0.760418 0.230533 0
0.802533 0.230533 0
0.840452 0.230533 0
0.873884 0.230533 0
0.902846 0.230533 0
0.927504 0.230533 0
0.948196 0.230533 0
0.965331 0.230533 0
0.979385 0.230533 0
0.990799 0.230533 0
1 0.230533 0
0 0.271351 0
0 0.271351 0
0 0.271351 0
0.000366217 0.271351 0
0.0153353 0.271351 0
0.0343328 0.271351 0
0.058381 0.271351 0
0.088838 0.271351 0
0.121736 0.271351 0
0.156008 0.271351 0
0.192157 0.271351 0
0.230533 0.271351 0
0.271351 0.271351 0
0.314717 0.271351 0
0.360586 0.271351 0
0.408789 0.271351 0
0.45893 0.271351 0
0.510491 0.271351 0
0.562737 0.271351 0
0.614801 0.271351 0
0.665736 0.271351 0
0.71458 0.271351 0
0.760418 0.271351 0
0.802533 0.271351 0
0.840452 0.271351 0
0.873884 0.271351 0
0.902846 0.271351 0
0.927504 0.271351 0
0.948196 0.271351 0
0.965331 0.271351 0
0.979385 0.271351 0
0.990799 0.271351 0
1 0.271351 0
0 0.314717 0
0 0.314717 0
0 0.314717 0
0.000366217 0.314717 0
0.0153353 0.314717 0
0.0343328 0.314717 0
0.058381 0.314717 0
0.088838 0.314717 0
0.121736 0.314717 0
0.156008 0.314717 0
0.192157 0.314717 0
0.230533 0.314717 0
0.271351 0.314717 0
0.314717 0.314717 0
0.360586 0.314717 0
0.408789 0.314717 0
0.45893 0.314717 0
0.510491 0.314717 0
0.562737 0.314717 0
0.614801 0.314717 0
0.665736 0.314717 0
0.71458 0.314717 0
0.760418 0.314717 0
0.802533 0.314717 0
0.840452 0.314717 0
0.873884 0.314717 0
0.902846 0.314717 0
0.927504 0.314717 0
0.948196 0.314717 0
0.965331 0.314717 0
0.979385 0.314717 0
0.990799 0.314717 0
1 0.314717 0
0 0.360586 0
0 0.360586 0
0 0.360586 0
0.000366217 0.360586 0
0.0153353 0.360586 0
0.0343328 0.360586 0
0.058381 0.360586 0
0.088838 0.360586 0
0.121736 0.360586 0
0.156008 0.360586 0
0.192157 0.360586 0
0.230533 0.360586 0
0.271351 0.360586 0
0.314717 0.360586 0
0.360586 0.360586 0
0.408789 0.360586 0
0.45893 0.360586 0
0.510491 0.360586 0
0.562737 0.360586 0
0.614801 0.360586 0
0.665736 0.360586 0
0.71458 0.360586 0
0.760418 0.360586 0
0.802533 0.360586 0
0.840452 0.360586 0
0.873884 0.360586 0
0.902846 0.360586 0
0.927504 0.360586 0
0.948196 0.360586 0
0.965331 0.360586 0
0.979385 0.360586 0
0.990799 0.360586 0
1 0.360586 0
0 0.408789 0
0 0.408789 0
0 0.408789 0
0.000366217 0.408789 0
0.0153353 0.408789 0
0.0343328 0.408789 0
0.058381 0.408789 0
0.088838 0.408789 0
0.121736 0.408789 0
0.156008 0.408789 0
0.192157 0.408789 0
0.230533 0.408789 0
0.271351 0.408789 0
0.314717 0.408789 0
0.360586 0.408789 0
0.408789 0.408789 0
0.45893 0.408789 0
0.510491 0.408789 0
0.562737 0.408789 0
0.614801 0.408789 0
0.665736 0.408789 0
0.71458 0.408789 0
0.760418 0.408789 0
0.802533 0.408789 0
0.840452 0.408789 0
0.873884 0.408789 0
0.902846 0.408789 0
0.927504 0.408789 0
0.948196 0.408789 0
0.965331 0.408789 0
0.979385 0.408789 0
0.990799 0.408789 0
1 0.408789 0
0 0.45893 0
0 0.45893 0
0 0.45893 0
0.000366217 0.45893 0
0.0153353 0.45893 0
0.0343328 0.45893 0
0.058381 0.45893 0
0.088838 0.45893 0
0.121736 0.45893 0
0.156008 0.45893 0
0.192157 0.45893 0
0.230533 0.45893 0
0.271351 0.45893 0
0.314717 0.45893 0
0.360586 0.45893 0
0.408789 0.45893 0
0.45893 0.45893 0
0.510491 0.45893 0
0.562737 0.45893 0
0.614801 0.45893 0
0.665736 0.45893 0
0.71458 0.45893 0
0.760418 0.45893 0
0.802533 0.45893 0
0.840452 0.45893 0
0.873884 0.45893 0
0.902846 0.45893 0
0.927504 0.45893 0
0.948196 0.45893 0
0.965331 0.45893 0
0.979385 0.45893 0
0.990799 0.45893 0
1 0.45893 0
0 0.510491 0
0 0.510491 0
0 0.510491 0
0.000366217 0.510491 0
0.0153353 0.510491 0
0.0343328 0.510491 0
0.058381 0.510491 0
0.088838 0.510491 0
0.121736 0.510491 0
0.156008 0.510491 0
0.192157 0.510491 0
0.230533 0.510491 0
0.271351 0.510491 0
0.314717 0.510491 0
0.360586 0.510491 0
0.408789 0.510491 0
0.45893 0.510491 0
0.510491 0.510491 0
0.562737 0.510491 0
0.614801 0.510491 0
0.665736 0.510491 0
0.71458 0.510491 0
0.760418 0.510491 0
0.802533 0.510491 0
0.840452 0.510491 0
0.873884 0.510491 0
0.902846 0.510491 0
0.927504 0.510491 0
0.948196 0.510491 0
0.965331 0.510491 0
0.979385 0.510491 0
0.990799 0.510491 0
1 0.510491 0
0 0.562737 0
0 0.562737 0
0 0.562737 0
0.000366217 0.562737 0
0.0153353 0.562737 0
0.0343328 0.562737 0
0.058381 0.562737 0
0.088838 0.562737 0
0.121736 0.562737 0
0.156008 0.562737 0
0.192157 0.562737 0
0.230533 0.562737 0
0.271351 0.562737 0
0.314717 0.562737 0
0.360586 0.562737 0
0.408789 0.562737 0
0.45893 0.562737 0
0.510491 0.562737 0
0.562737 0.562737 0
0.614801 0.562737 0
0.665736 0.562737 0
0.71458 0.562737 0
0.760418 0.562737 0
0.802533 0.562737 0
0.840452 0.562737 0
0.873884 0.562737 0
0.902846 0.562737 0
0.927504 0.562737 0
0.948196 0.562737 0
0.965331 0.562737 0
0.979385 0.562737 0
0.990799 0.562737 0
1 0.562737 0
0 0.614801 0
0 0.614801 0
0 0.614801 0
0.000366217 0.614801 0
0.0153353 0.614801 0
0.0343328 0.614801 0
0.058381 0.614801 0
0.088838 0.614801 0
0.121736 0.614801 0
0.156008 0.614801 0
0.192157 0.614801 0
0.230533 0.614801 0
0.271351 0.614801 0
0.314717 0.614801 0
0.360586 0.614801 0
0.408789 0.614801 0
0.45893 0.614801 0
0.510491 0.614801 0
0.562737 0.614801 0
0.614801 0.614801 0
0.665736 0.614801 0
0.71458 0.614801 0
0.760418 0.614801 0
0.802533 0.614801 0
0.840452 0.614801 0
0.873884 0.614801 0
0.902846 0.614801 0
0.927504 0.614801 0
0.948196 0.614801 0
0.965331 0.614801 0
0.979385 0.614801 0
0.990799 0.614801 0
1 0.614801 0
0 0.665736 0
0 0.665736 0
0 0.665736 0
0.000366217 0.665736 0
0.0153353 0.665736 0
0.0343328 0.665736 0
0.058381 0.665736 0
0.088838 0.665736 0
0.121736 0.665736 0
0.156008 0.665736 0
0.192157 0.665736 0
0.230533 0.665736 0
0.271351 0.665736 0
0.314717 0.665736 0
0.360586 0.665736 0
0.408789 0.665736 0
0.45893 0.665736 0
0.510491 0.665736 0
0.562737 0.665736 0
0.614801 0.665736 0
0.665736 0.665736 0
0.71458 0.665736 0
0.760418 0.665736 0
0.802533 0.665736 0
0.840452 0.665736 0
0.873884 0.665736 0
0.902846 0.665736 0
0.927504 0.665736 0
0.948196 0.665736 0
0.965331 0.665736 0
0.979385 0.665736 0
0.990799 0.665736 0
1 0.665736 0
0 0.71458 0
0 0.71458 0
0 0.71458 0
0.000366217 0.71458 0
0.0153353 0.71458 0
0.0343328 0.71458 0
0.058381 0.71458 0
0.088838 0.71458 0
0.121736 0.71458 0
0.156008 0.71458 0
0.192157 0.71458 0
0.230533 0.71458 0
0.271351 0.71458 0
0.314717 0.71458 0
0.360586 0.71458 0
0.408789 0.71458 0
0.45893 0.71458 0
0.510491 0.71458 0
0.562737 0.71458 0
0.614801 0.71458 0
0.665736 0.71458 0
0.71458 0.71458 0
0.760418 0.71458 0
0.802533 0.71458 0
0.840452 0.71458 0
0.873884 0.71458 0
0.902846 0.71458 0
0.927504 0.71458 0
0.948196 0.71458 0
0.965331 0.71458 0
0.979385 0.71458 0
0.990799 0.71458 0
1 0.71458 0
0 0.760418 0
0 0.760418 0
0 0.760418 0
0.000366217 0.760418 0
0.0153353 0.760418 0
0.0343328 0.760418 0
0.058381 0.760418 0
0.088838 0.760418 0
0.121736 0.760418 0
0.156008 0.760418 0
0.192157 0.760418 0
0.230533 0.760418 0
0.271351 0.760418 0
0.314717 0.760418 0
0.360586 0.760418 0
0.408789 0.760418 0
0.45893 0.760418 0
0.510491 0.760418 0
0.562737 0.760418 0
0.614801 0.760418 0
0.665736 0.760418 0
0.71458 0.760418 0
0.760418 0.760418 0
0.802533 0.760418 0
0.840452 0.760418 0
0.873884 0.760418 0
0.902846 0.760418 0
0.927504 0.760418 0
0.948196 0.760418 0
0.965331 0.760418 0
0.979385 0.760418 0
0.990799 0.760418 0
1 0.760418 0
0 0.802533 0
0 0.802533 0
0 0.802533 0
0.000366217 0.802533 0
0.0153353 0.802533 0
0.0343328 0.802533 0
0.058381 0.802533 0
0.088838 0.802533 0
0.121736 0.802533 0
0.156008 0.802533 0
0.192157 0.802533 0
0.230533 0.802533 0
0.271351 0.802533 0
0.314717 0.802533 0
0.360586 0.802533 0
0.408789 0.802533 0
0.45893 0.802533 0
0.510491 0.802533 0
0.562737 0.802533 0
0.614801 0.802533 0
0.665736 0.802533 0
0.71458 0.802533 0
0.760418 0.802533 0
0.802533 0.802533 0
0.840452 0.802533 0
0.873884 0.802533 0
0.902846 0.802533 0
0.927504 0.802533 0
0.948196 0.802533 0
0.965331 0.802533 0
0.979385 0.802533 0
0.990799 0.802533 0
1 0.802533 0
0 0.840452 0
0 0.840452 0
0 0.840452 0
0.000366217 0.840452 0
0.0153353 0.840452 0
0.0343328 0.840452 0
0.058381 0.840452 0
0.088838 0.840452 0
0.121736 0.840452 0
0.156008 0.840452 0
0.192157 0.840452 0
0.230533 0.840452 0
0.271351 0.840452 0
0.314717 0.840452 0
0.360586 0.840452 0
0.408789 0.840452 0
0.45893 0.840452 0
0.510491 0.840452 0
0.562737 0.840452 0
0.614801 0.840452 0
0.665736 0.840452 0
0.71458 0.840452 0
0.760418 0.840452 0
0.802533 0.840452 0
0.840452 0.840452 0
0.873884 0.840452 0
0.902846 0.840452 0
0.927504 0.840452 0
0.948196 0.840452 0
0.965331 0.840452 0
0.979385 0.840452 0
0.990799 0.840452 0
1 0.840452 0
0 0.873884 0
0 0.873884 0
0 0.873884 0
0.000366217 0.873884 0
0.0153353 0.873884 0
0.0343328 0.873884 0
0.058381 0.873884 0
0.088838 0.873884 0
0.121736 0.873884 0
0.156008 0.873884 0
0.192157 0.873884 0
0.230533 0.873884 0
0.271351 0.873884 0
0.314717 0.873884 0
0.360586 0.873884 0
0.408789 0.873884 0
0.45893 0.873884 0
0.510491 0.873884 0
0.562737 0.873884 0
0.614801 0.873884 0
0.665736 0.873884 0
0.71458 0.873884 0
0.760418 0.873884 0
0.802533 0.873884 0
0.840452 0.873884 0
0.873884 0.873884 0
0.902846 0.873884 0
0.927504 0.873884 0
0.948196 0.873884 0
0.965331 0.873884 0
0.979385 0.873884 0
0.990799 0.873884 0
1 0.873884 0
0 0.902846 0
0 0.902846 0
0 0.902846 0
0.000366217 0.902846 0
0.0153353 0.902846 0
0.0343328 0.902846 0
0.058381 0.902846 0
0.088838 0.902846 0
0.121736 0.902846 0
0.156008 0.902846 0
0.192157 0.902846 0
0.230533 0.902846 0
0.271351 0.902846 0
0.314717 0.902846 0
0.360586 0.902846 0
0.408789 0.902846 0
0.45893 0.902846 0
0.510491 0.902846 0
0.562737 0.902846 0
0.614801 0.902846 0
0.665736 0.902846 0
0.71458 0.902846 0
0.760418 0.902846 0
0.802533 0.902846 0
0.840452 0.902846 0
0.873884 0.902846 0
0.902846 0.902846 0
0.927504 0.902846 0
0.948196 0.902846 0
0.965331 0.902846 0
0.979385 0.902846 0
0.990799 0.902846 0
1 0.902846 0
0 0.927504 0
0 0.927504 0
0 0.927504 0
0.000366217 0.927504 0
0.0153353 0.927504 0
0.0343328 0.927504 0
0.058381 0.927504 0
0.088838 0.927504 0
0.121736 0.927504 0
